app/dist/common/images/record-plc.svg

<svg height="18" viewBox="0 0 18 18" width="18" xmlns="http://www.w3.org/2000/svg"><path d="m0 0h18v18h-18z" fill="#f0f3fa"/><path d="m7 3v3h-1v2h1.5c.84 0 1.5-.74 1.5-1.67v-3.33zm4 12v-3h1v-2h-1.5c-.84 0-1.5.74-1.5 1.67v3.33zm1-8h3v2h-3.33c-.93 0-1.67-.66-1.67-1.5v-1.5h2zm-9 4h3v1h2v-1.5c0-.84-.74-1.5-1.67-1.5h-3.33z"/></svg>

<!-- by TradingView --><svg width="18" height="18" viewBox="0 0 18 18" xmlns="http://www.w3.org/2000/svg"><path fill="#F0F3FA" d="M0 0h18v18H0z"/><path d="M7 3v3H6v2h1.5C8.34 8 9 7.26 9 6.33V3H7Zm4 12v-3h1v-2h-1.5c-.84 0-1.5.74-1.5 1.67V15h2Zm1-8h3v2h-3.33C10.74 9 10 8.34 10 7.5V6h2v1Zm-9 4h3v1h2v-1.5C8 9.66 7.26 9 6.33 9H3v2Z"/></svg>
